;FLAVOR:UltiGCode
;TIME:3183
;MATERIAL:5110
;MATERIAL2:0
;NOZZLE_DIAMETER:0.4
;MINX:84.801
;MINY:87.897
;MINZ:0.3
;MAXX:134.403
;MAXY:175.01
;MAXZ:14.55
;Generated with Cura_SteamEngine 5.3.0
M82 ;absolute extrusion mode
G0 F3000 Y50 ;avoid prime blob
G92 E0
G92 E0
G10
;LAYER_COUNT:96
;LAYER:0
M107
G0 F7200 X91.326 Y89.93 Z0.3
;TYPE:SKIRT
G11
G1 F900 X93.618 Y88.602 E0.31787
G1 X95.856 Y87.901 E0.5993
G1 X97.926 Y87.897 E0.8477
G1 X101.163 Y87.906 E1.23614
G1 X126.664 Y87.9 E4.29626
G1 X129.366 Y88.434 E4.62677
G1 X132.356 Y90.617 E5.07102
G1 X133.691 Y92.901 E5.38849
G1 X134.399 Y95.169 E5.6736
G1 X134.403 Y97.14 E5.91012
G1 X134.394 Y100.07 E6.26172
G1 X134.4 Y119.481 E8.59104
G1 X133.874 Y122.166 E8.91937
G1 X131.675 Y125.169 E9.36601
G1 X130.591 Y125.796 E9.51629
G1 X130.59 Y150.466 E12.47669
G1 X129.962 Y153.077 E12.79894
G1 X128.084 Y155.559 E13.17243
G1 X126.429 Y156.865 E13.42542
G1 X123.557 Y157.912 E13.79225
G1 X117.706 Y157.912 E14.49437
G1 X118.939 Y160.209 E14.80721
G1 X119.4 Y162.242 E15.05736
G1 X119.604 Y164.072 E15.27832
G1 X119.359 Y166.451 E15.56531
G1 X118.36 Y169.159 E15.91168
G1 X116.94 Y171.236 E16.2136
G1 X115.44 Y172.591 E16.45617
G1 X114.059 Y173.592 E16.66084
G1 X112.008 Y174.495 E16.92976
G1 X109.833 Y174.956 E17.19656
G1 X107.888 Y175.01 E17.43005
G1 X105.307 Y174.544 E17.74478
G1 X103.377 Y173.651 E17.99997
G1 X101.923 Y172.774 E18.20373
G1 X100.102 Y171.038 E18.50564
G1 X98.669 Y168.744 E18.83021
G1 X98.016 Y166.96 E19.05818
G1 X97.564 Y164.395 E19.37073
G1 X97.859 Y161.627 E19.70477
G1 X98.856 Y158.931 E20.0497
G1 X99.552 Y157.912 E20.19778
G1 X92.234 Y157.911 E21.07594
G1 X89.673 Y157.283 E21.39237
G1 X87.514 Y155.699 E21.7137
G1 X85.85 Y153.835 E22.01354
G1 X84.801 Y150.79 E22.40001
G1 X84.802 Y126.128 E25.35945
G1 X85.412 Y123.423 E25.6922
G1 X87.247 Y121.082 E26.04914
G1 X88.601 Y120.007 E26.2566
G1 X88.597 Y117.96 E26.50224
G1 X88.606 Y115.03 E26.85385
G1 X88.6 Y95.619 E29.18317
G1 X89.126 Y92.934 E29.51149
G1 X91.326 Y89.93 E29.9583
G0 F7200 X91.599 Y90.234
G1 F900 X93.779 Y88.971 E30.26064
G1 X95.919 Y88.301 E30.52973
G1 X97.925 Y88.297 E30.77045
G1 X101.162 Y88.306 E31.15889
G1 X126.627 Y88.3 E34.21469
G1 X129.201 Y88.809 E34.52955
G1 X132.053 Y90.891 E34.95328
G1 X133.322 Y93.062 E35.25504
G1 X133.999 Y95.231 E35.52771
G1 X134.003 Y97.139 E35.75667
G1 X133.994 Y100.069 E36.10827
G1 X134 Y119.44 E38.43279
G1 X133.498 Y122.002 E38.74608
G1 X131.401 Y124.866 E39.17203
G1 X130.111 Y125.612 E39.35085
G1 X130.191 Y125.936 E39.3909
G1 X130.19 Y150.419 E42.32886
G1 X129.593 Y152.903 E42.63543
G1 X127.797 Y155.276 E42.99255
G1 X126.232 Y156.511 E43.23178
G1 X123.486 Y157.512 E43.58252
G1 X116.908 Y157.512 E44.37188
G1 X117.248 Y157.903 E44.43405
G1 X118.56 Y160.349 E44.76713
G1 X119.002 Y162.286 E45.00555
G1 X119.201 Y164.075 E45.22155
G1 X118.966 Y166.362 E45.49744
G1 X118.003 Y168.973 E45.83139
G1 X116.637 Y170.971 E46.12183
G1 X115.205 Y172.267 E46.35359
G1 X113.857 Y173.244 E46.55337
G1 X111.884 Y174.113 E46.81208
G1 X109.788 Y174.557 E47.06918
G1 X107.919 Y174.609 E47.29355
G1 X105.427 Y174.159 E47.59742
G1 X103.584 Y173.308 E47.84102
G1 X102.166 Y172.453 E48.03972
G1 X100.413 Y170.782 E48.33034
G1 X99.031 Y168.569 E48.64343
G1 X98.404 Y166.855 E48.86244
G1 X97.968 Y164.382 E49.16378
G1 X98.252 Y161.718 E49.48527
G1 X99.214 Y159.116 E49.81816
G1 X100.31 Y157.512 E50.05129
G1 X92.284 Y157.511 E51.01441
G1 X89.844 Y156.913 E51.31587
G1 X87.783 Y155.4 E51.62268
G1 X86.202 Y153.629 E51.90756
G1 X85.201 Y150.724 E52.27628
G1 X85.202 Y126.172 E55.22252
G1 X85.782 Y123.6 E55.53891
G1 X87.534 Y121.365 E55.87969
G1 X89.084 Y120.135 E56.11714
G1 X89.001 Y119.808 E56.15762
G1 X88.997 Y117.961 E56.37926
G1 X89.006 Y115.031 E56.73086
G1 X89 Y95.66 E59.05538
G1 X89.502 Y93.098 E59.36867
G1 X91.599 Y90.234 E59.79463
G0 F7200 X91.873 Y90.537
G1 F900 X93.938 Y89.341 E60.08099
G1 X95.982 Y88.701 E60.33801
G1 X97.924 Y88.697 E60.57105
G1 X101.161 Y88.706 E60.95949
G1 X126.589 Y88.7 E64.01085
G1 X129.036 Y89.184 E64.31018
G1 X131.75 Y91.165 E64.71339
G1 X132.953 Y93.223 E64.99945
G1 X133.599 Y95.293 E65.25966
G1 X133.603 Y97.138 E65.48106
G1 X133.594 Y100.068 E65.83267
G1 X133.6 Y119.399 E68.15239
G1 X133.122 Y121.838 E68.45063
G1 X131.127 Y124.563 E68.8559
G1 X129.637 Y125.425 E69.06247
G1 X129.791 Y125.936 E69.12651
G1 X129.79 Y150.371 E72.05871
G1 X129.223 Y152.729 E72.34974
G1 X127.51 Y154.993 E72.69042
G1 X126.035 Y156.157 E72.9159
G1 X123.415 Y157.112 E73.25053
G1 X116.001 Y157.112 E74.14021
G1 X116.896 Y158.092 E74.29947
G1 X118.182 Y160.489 E74.6259
G1 X118.604 Y162.33 E74.85254
G1 X118.798 Y164.078 E75.06359
G1 X118.573 Y166.273 E75.32837
G1 X117.646 Y168.787 E75.64991
G1 X116.334 Y170.706 E75.92886
G1 X114.97 Y171.943 E76.14983
G1 X113.655 Y172.896 E76.34471
G1 X111.76 Y173.731 E76.59321
G1 X109.743 Y174.158 E76.84061
G1 X107.95 Y174.208 E77.05586
G1 X105.545 Y173.774 E77.34912
G1 X103.79 Y172.965 E77.58102
G1 X102.408 Y172.132 E77.77465
G1 X100.726 Y170.528 E78.05356
G1 X99.394 Y168.395 E78.35533
G1 X98.791 Y166.748 E78.5658
G1 X98.372 Y164.369 E78.85567
G1 X98.645 Y161.809 E79.16461
G1 X99.572 Y159.301 E79.48547
G1 X100.792 Y157.516 E79.74492
G1 X101.201 Y157.112 E79.81391
G1 X92.33 Y157.111 E80.87843
G1 X90.017 Y156.544 E81.16421
G1 X88.052 Y155.101 E81.45676
G1 X86.554 Y153.423 E81.72668
G1 X85.601 Y150.658 E82.07764
G1 X85.602 Y126.216 E85.01068
G1 X86.152 Y123.777 E85.31071
G1 X87.821 Y121.648 E85.63533
G1 X89.278 Y120.491 E85.85859
G1 X89.572 Y120.353 E85.89757
G1 X89.401 Y119.807 E85.96623
G1 X89.397 Y117.962 E86.18763
G1 X89.406 Y115.032 E86.53923
G1 X89.4 Y95.701 E88.85895
G1 X89.878 Y93.262 E89.1572
G1 X91.873 Y90.537 E89.56246
G0 F7200 X92.147 Y90.84
G1 F900 X94.097 Y89.711 E89.83285
G1 X96.045 Y89.101 E90.07781
G1 X97.923 Y89.097 E90.30317
G1 X101.16 Y89.106 E90.69161
G1 X126.551 Y89.1 E93.73853
G1 X128.871 Y89.559 E94.02232
G1 X131.447 Y91.439 E94.40501
G1 X132.584 Y93.384 E94.67537
G1 X133.199 Y95.355 E94.92313
G1 X133.203 Y97.137 E95.13697
G1 X133.194 Y100.067 E95.48858
G1 X133.2 Y119.358 E97.8035
G1 X132.746 Y121.674 E98.08671
G1 X130.853 Y124.26 E98.47128
G1 X129.151 Y125.245 E98.70726
G1 X129.391 Y125.936 E98.79504
G1 X129.39 Y150.323 E101.72148
G1 X128.853 Y152.555 E101.99696
G1 X127.223 Y154.71 E102.32121
G1 X125.838 Y155.803 E102.53293
G1 X123.344 Y156.712 E102.85146
G1 X115.095 Y156.712 E103.84134
G1 X116.568 Y158.326 E104.10356
G1 X117.803 Y160.628 E104.41704
G1 X118.206 Y162.374 E104.63207
G1 X118.395 Y164.081 E104.83816
G1 X118.18 Y166.184 E105.09184
G1 X117.289 Y168.601 E105.40096
G1 X116.03 Y170.441 E105.6685
G1 X114.701 Y171.647 E105.88385
G1 X113.456 Y172.547 E106.0682
G1 X111.636 Y173.349 E106.30686
G1 X109.698 Y173.759 E106.54457
G1 X107.981 Y173.807 E106.75069
G1 X105.663 Y173.389 E107.03334
G1 X103.996 Y172.622 E107.25354
G1 X102.65 Y171.811 E107.44211
G1 X101.039 Y170.274 E107.7093
G1 X99.756 Y168.22 E107.99991
G1 X99.179 Y166.643 E108.20142
G1 X98.776 Y164.356 E108.48009
G1 X99.038 Y161.9 E108.77648
G1 X99.93 Y159.486 E109.08531
G1 X101.122 Y157.742 E109.3388
G1 X102.194 Y156.712 E109.5172
G1 X92.376 Y156.711 E110.69536
G1 X90.19 Y156.175 E110.96545
G1 X88.321 Y154.802 E111.24374
G1 X86.906 Y153.217 E111.49871
G1 X86.001 Y150.592 E111.8319
G1 X86.002 Y126.26 E114.75174
G1 X86.522 Y123.954 E115.03541
G1 X88.108 Y121.931 E115.34388
G1 X89.527 Y120.804 E115.56133
G1 X90.063 Y120.583 E115.63091
G1 X89.801 Y119.745 E115.73627
G1 X89.797 Y117.963 E115.95011
G1 X89.806 Y115.033 E116.30171
G1 X89.8 Y95.742 E118.61663
G1 X90.254 Y93.426 E118.89984
G1 X92.147 Y90.84 E119.28442
G0 F7200 X92.421 Y91.143
G1 F900 X94.256 Y90.081 E119.53883
G1 X96.108 Y89.501 E119.77172
G1 X97.922 Y89.497 E119.9894
G1 X101.159 Y89.506 E120.37784
G1 X126.513 Y89.5 E123.42032
G1 X128.706 Y89.934 E123.68858
G1 X131.144 Y91.713 E124.05075
G1 X132.215 Y93.545 E124.3054
G1 X132.799 Y95.417 E124.54072
G1 X132.803 Y97.136 E124.747
G1 X132.794 Y100.066 E125.0986
G1 X132.8 Y119.317 E127.40872
G1 X132.37 Y121.51 E127.67689
G1 X130.579 Y123.957 E128.04078
G1 X128.665 Y125.064 E128.30611
G1 X128.991 Y126.004 E128.4255
G1 X128.99 Y150.276 E131.33814
G1 X128.484 Y152.381 E131.59794
G1 X126.936 Y154.427 E131.90581
G1 X125.641 Y155.449 E132.10378
G1 X123.273 Y156.312 E132.40622
G1 X113.839 Y156.312 E133.5383
G1 X114.824 Y157.003 E133.68268
G1 X116.24 Y158.56 E133.93523
G1 X117.424 Y160.767 E134.23578
G1 X117.808 Y162.418 E134.43919
G1 X117.992 Y164.084 E134.64032
G1 X117.787 Y166.095 E134.88289
G1 X116.932 Y168.415 E135.1796
G1 X115.726 Y170.176 E135.43572
G1 X114.432 Y171.351 E135.64547
G1 X113.257 Y172.198 E135.81928
G1 X111.512 Y172.967 E136.04811
G1 X109.653 Y173.36 E136.27612
G1 X108.012 Y173.406 E136.47312
G1 X105.785 Y173.004 E136.74468
G1 X104.203 Y172.279 E136.95351
G1 X102.891 Y171.488 E137.13735
G1 X101.352 Y170.02 E137.39257
G1 X100.119 Y168.046 E137.67186
G1 X99.566 Y166.536 E137.86483
G1 X99.18 Y164.343 E138.13204
G1 X99.431 Y161.991 E138.41588
G1 X100.288 Y159.671 E138.71267
G1 X101.43 Y158 E138.95554
G1 X102.906 Y156.582 E139.20116
G1 X103.351 Y156.312 E139.26362
G1 X92.422 Y156.311 E140.5751
G1 X90.363 Y155.806 E140.8295
G1 X88.593 Y154.505 E141.0931
G1 X87.257 Y153.01 E141.3337
G1 X86.401 Y150.526 E141.64898
G1 X86.402 Y126.304 E144.55562
G1 X86.892 Y124.131 E144.82293
G1 X88.395 Y122.214 E145.11525
G1 X89.73 Y121.153 E145.31988
G1 X90.554 Y120.813 E145.42684
G1 X90.201 Y119.683 E145.56891
G1 X90.197 Y117.964 E145.77519
G1 X90.206 Y115.034 E146.12679
G1 X90.2 Y95.783 E148.43691
G1 X90.63 Y93.59 E148.70508
G1 X92.421 Y91.143 E149.06897
G0 F7200 X92.695 Y91.446
G1 F900 X94.415 Y90.451 E149.30742
G1 X96.171 Y89.901 E149.52823
G1 X97.921 Y89.897 E149.73823
G1 X101.158 Y89.906 E150.12667
G1 X126.475 Y89.9 E153.16471
G1 X128.541 Y90.309 E153.41744
G1 X130.841 Y91.987 E153.75909
G1 X131.846 Y93.706 E153.99804
G1 X132.399 Y95.479 E154.22091
G1 X132.403 Y97.135 E154.41963
G1 X132.394 Y100.065 E154.77123
G1 X132.4 Y119.276 E157.07655
G1 X131.994 Y121.346 E157.32968
G1 X130.305 Y123.654 E157.67288
G1 X128.586 Y124.648 E157.91116
G1 X128.146 Y124.786 E157.9665
G1 X128.591 Y126.072 E158.1298
G1 X128.59 Y150.228 E161.02852
G1 X128.114 Y152.207 E161.27277
G1 X126.649 Y154.144 E161.56421
G1 X125.444 Y155.095 E161.74841
G1 X123.202 Y155.912 E162.03476
G1 X112.356 Y155.912 E163.33628
G1 X113.325 Y156.44 E163.4687
G1 X114.557 Y157.304 E163.64927
G1 X115.912 Y158.794 E163.89095
G1 X117.045 Y160.906 E164.17856
G1 X117.418 Y162.509 E164.37606
G1 X117.59 Y164.087 E164.56654
G1 X117.394 Y166.006 E164.79802
G1 X116.575 Y168.229 E165.0823
G1 X115.422 Y169.911 E165.32701
G1 X114.163 Y171.055 E165.53115
G1 X113.057 Y171.849 E165.69453
G1 X111.388 Y172.585 E165.91342
G1 X109.608 Y172.961 E166.13173
G1 X108.043 Y173.005 E166.31961
G1 X105.905 Y172.619 E166.58031
G1 X104.409 Y171.936 E166.77766
G1 X103.133 Y171.167 E166.95644
G1 X101.665 Y169.766 E167.19994
G1 X100.481 Y167.871 E167.46808
G1 X99.954 Y166.431 E167.65209
G1 X99.584 Y164.33 E167.90809
G1 X99.824 Y162.082 E168.17938
G1 X100.646 Y159.856 E168.46413
G1 X101.738 Y158.258 E168.69639
G1 X103.183 Y156.87 E168.93683
G1 X104.848 Y155.912 E169.16734
G1 X92.472 Y155.911 E170.65246
G1 X90.534 Y155.436 E170.8919
G1 X88.862 Y154.207 E171.14091
G1 X87.609 Y152.804 E171.36664
G1 X86.801 Y150.46 E171.66416
G1 X86.802 Y126.348 E174.5576
G1 X87.262 Y124.308 E174.80855
G1 X88.682 Y122.497 E175.08471
G1 X89.933 Y121.502 E175.27652
G1 X91.045 Y121.043 E175.42089
G1 X90.601 Y119.621 E175.59965
G1 X90.597 Y117.965 E175.79837
G1 X90.606 Y115.035 E176.14997
G1 X90.6 Y95.824 E178.45529
G1 X91.006 Y93.754 E178.70842
G1 X92.695 Y91.446 E179.05162
G0 F7200 X92.969 Y91.749
G1 F900 X94.574 Y90.821 E179.2741
G1 X96.234 Y90.301 E179.48285
G1 X97.92 Y90.297 E179.68517
G1 X101.157 Y90.306 E180.07361
G1 X126.437 Y90.3 E183.10721
G1 X128.376 Y90.684 E183.34441
G1 X130.538 Y92.261 E183.66553
G1 X131.477 Y93.867 E183.88878
G1 X131.999 Y95.541 E184.0992
G1 X132.003 Y97.134 E184.29036
G1 X131.994 Y100.064 E184.64196
G1 X132 Y119.235 E186.94248
G1 X131.618 Y121.182 E187.18057
G1 X130.031 Y123.351 E187.50308
G1 X128.427 Y124.278 E187.7254
G1 X127.633 Y124.527 E187.82525
G1 X128.191 Y126.139 E188.02995
G1 X128.19 Y150.181 E190.91499
G1 X127.745 Y152.033 E191.14356
G1 X126.362 Y153.861 E191.41862
G1 X125.247 Y154.741 E191.58908
G1 X123.131 Y155.512 E191.85933
G1 X108.49 Y155.512 E193.61625
G1 X110.112 Y155.591 E193.81112
G1 X111.855 Y156.096 E194.02888
G1 X113.095 Y156.768 E194.19812
G1 X114.293 Y157.608 E194.3737
G1 X115.584 Y159.028 E194.604
G1 X116.666 Y161.045 E194.87867
G1 X117.028 Y162.6 E195.07026
G1 X117.188 Y164.089 E195.24996
G1 X117.001 Y165.917 E195.47047
G1 X116.218 Y168.043 E195.74234
G1 X115.119 Y169.646 E195.97557
G1 X113.894 Y170.759 E196.17418
G1 X112.857 Y171.5 E196.32713
G1 X111.264 Y172.203 E196.53607
G1 X109.563 Y172.562 E196.74469
G1 X108.074 Y172.604 E196.92344
G1 X106.024 Y172.234 E197.17342
G1 X104.575 Y171.572 E197.36458
G1 X103.377 Y170.847 E197.53262
G1 X101.978 Y169.512 E197.76467
G1 X100.843 Y167.696 E198.02165
G1 X100.342 Y166.326 E198.1967
G1 X99.988 Y164.317 E198.44149
G1 X100.217 Y162.173 E198.70024
G1 X101.004 Y160.041 E198.97295
G1 X102.046 Y158.516 E199.19459
G1 X103.423 Y157.193 E199.42374
G1 X105.323 Y156.1 E199.68677
G1 X107.143 Y155.589 E199.91362
G1 X108.106 Y155.512 E200.02955
G1 X92.518 Y155.511 E201.90011
G1 X90.707 Y155.067 E202.12386
G1 X89.131 Y153.909 E202.35855
G1 X87.961 Y152.598 E202.5694
G1 X87.201 Y150.394 E202.84917
G1 X87.202 Y126.392 E205.72941
G1 X87.632 Y124.485 E205.96399
G1 X88.969 Y122.78 E206.224
G1 X90.137 Y121.851 E206.40309
G1 X91.536 Y121.274 E206.58468
G1 X91.001 Y119.559 E206.80026
G1 X90.997 Y117.966 E206.99143
G1 X91.006 Y115.036 E207.34303
G1 X91 Y95.865 E209.64355
G1 X91.382 Y93.918 E209.88164
G1 X92.969 Y91.749 E210.20415
G0 F7200 X93.243 Y92.052
G1 F900 X94.733 Y91.191 E210.41066
G1 X96.297 Y90.701 E210.60733
G1 X97.919 Y90.697 E210.80197
G1 X101.156 Y90.706 E211.19041
G1 X126.399 Y90.7 E214.21958
G1 X128.211 Y91.059 E214.44124
G1 X130.235 Y92.535 E214.74184
G1 X131.108 Y94.028 E214.94938
G1 X131.599 Y95.603 E215.14736
G1 X131.603 Y97.133 E215.33096
G1 X131.594 Y100.063 E215.68256
G1 X131.6 Y119.194 E217.97828
G1 X131.242 Y121.018 E218.20133
G1 X129.757 Y123.048 E218.50316
G1 X128.267 Y123.909 E218.70966
G1 X127.12 Y124.268 E218.85389
G1 X127.791 Y126.206 E219.09999
G1 X127.79 Y150.133 E221.97123
G1 X127.375 Y151.859 E222.18425
G1 X126.075 Y153.578 E222.44288
G1 X125.05 Y154.387 E222.59958
G1 X123.06 Y155.112 E222.85373
G1 X92.564 Y155.111 E226.51325
G1 X90.88 Y154.698 E226.72132
G1 X89.403 Y153.612 E226.94131
G1 X88.312 Y152.391 E227.1378
G1 X87.601 Y150.328 E227.39965
G1 X87.602 Y126.436 E230.26669
G1 X88.002 Y124.662 E230.48492
G1 X89.256 Y123.063 E230.72876
G1 X90.342 Y122.199 E230.8953
G1 X92.122 Y121.465 E231.12634
G1 X91.879 Y121.03 E231.18614
G1 X91.401 Y119.497 E231.37883
G1 X91.397 Y117.967 E231.56243
G1 X91.406 Y115.037 E231.91403
G1 X91.4 Y95.906 E234.20975
G1 X91.758 Y94.082 E234.43281
G1 X93.243 Y92.052 E234.73463
G0 F7200 X93.517 Y92.355
G1 F900 X94.892 Y91.561 E234.92517
G1 X96.36 Y91.101 E235.10977
G1 X97.918 Y91.097 E235.29673
G1 X101.155 Y91.106 E235.68517
G1 X126.361 Y91.1 E238.70989
G1 X128.046 Y91.434 E238.91603
G1 X129.932 Y92.809 E239.19611
G1 X130.739 Y94.189 E239.38795
G1 X131.199 Y95.665 E239.57347
G1 X131.203 Y97.132 E239.74951
G1 X131.194 Y100.062 E240.10111
G1 X131.2 Y119.153 E242.39203
G1 X130.866 Y120.854 E242.60005
G1 X129.483 Y122.745 E242.88118
G1 X128.108 Y123.539 E243.07172
G1 X126.697 Y123.981 E243.24915
G1 X126.418 Y123.999 E243.2827
G1 X126.754 Y124.42 E243.34734
G1 X127.391 Y126.272 E243.58235
G1 X127.39 Y150.085 E246.43991
G1 X127.005 Y151.685 E246.63739
G1 X125.788 Y153.295 E246.87958
G1 X124.853 Y154.033 E247.02252
G1 X122.989 Y154.712 E247.26058
G1 X92.614 Y154.711 E250.90558
G1 X91.051 Y154.328 E251.09869
G1 X89.672 Y153.314 E251.30409
G1 X88.664 Y152.185 E251.48571
G1 X88.001 Y150.262 E251.7298
G1 X88.002 Y126.48 E254.58364
