;FLAVOR:UltiGCode
;TIME:4936
;MATERIAL:4987
;MATERIAL2:0
;NOZZLE_DIAMETER:0.4
;MINX:53.096
;MINY:67.159
;MINZ:0.27
;MAXX:132.022
;MAXY:136.071
;MAXZ:14.47
;Generated with Cura_SteamEngine 5.3.1
M82 ;absolute extrusion mode
G0 F3000 Y50 ;avoid prime blob
G92 E0
G92 E0
G10
;LAYER_COUNT:143
;LAYER:0
M107
G0 F7200 X58.325 Y94.273 Z0.27
;TYPE:SKIRT
G11
G1 F1800 X60.891 Y93.821 E0.28139
G1 X91.748 Y93.822 E3.61395
G1 X94.4 Y94.735 E3.91686
G1 X96.498 Y96.272 E4.19775
G1 X96.864 Y96.8 E4.26713
G1 X119.474 Y96.804 E6.70901
G1 X121.779 Y96.798 E6.95795
G1 X125.253 Y96.805 E7.33315
G1 X127.735 Y97.882 E7.62535
G1 X129.681 Y99.234 E7.88126
G1 X131.443 Y101.89 E8.22549
G1 X132.019 Y104.479 E8.51194
G1 X132.022 Y126.003 E10.83653
G1 X132.016 Y128.639 E11.12122
G1 X131.311 Y131.311 E11.41967
G1 X129.225 Y134.116 E11.7972
G1 X126.87 Y135.418 E12.08782
G1 X124.646 Y136.067 E12.33803
G1 X121.74 Y136.071 E12.65188
G1 X119.474 Y136.064 E12.89661
G1 X98.799 Y136.064 E15.12951
G1 X96.496 Y136.07 E15.37824
G1 X93.017 Y136.063 E15.75397
G1 X90.25 Y134.867 E16.07953
G1 X88.492 Y133.436 E16.32434
G1 X88.223 Y133.083 E16.37227
G1 X60.513 Y133.082 E19.36495
G1 X57.943 Y132.459 E19.65055
G1 X55.683 Y130.788 E19.9541
G1 X54.063 Y128.793 E20.23165
G1 X53.096 Y126.01 E20.54984
G1 X53.097 Y100.876 E23.26431
G1 X53.896 Y98.587 E23.52615
G1 X55.29 Y96.362 E23.80972
G1 X58.325 Y94.273 E24.20764
G0 F7200 X58.479 Y94.652
G1 F1800 X60.926 Y94.221 E24.47599
G1 X91.682 Y94.222 E27.79763
G1 X94.212 Y95.093 E28.08661
G1 X96.207 Y96.555 E28.35373
G1 X96.654 Y97.2 E28.43849
G1 X119.475 Y97.204 E30.90316
G1 X121.778 Y97.198 E31.15188
G1 X125.17 Y97.205 E31.51822
G1 X127.542 Y98.234 E31.79746
G1 X129.39 Y99.518 E32.04049
G1 X131.069 Y102.049 E32.36852
G1 X131.619 Y104.521 E32.64202
G1 X131.622 Y126.003 E34.96208
G1 X131.616 Y128.586 E35.24104
G1 X130.944 Y131.134 E35.52563
G1 X128.955 Y133.809 E35.88564
G1 X126.717 Y135.046 E36.16181
G1 X124.589 Y135.667 E36.40122
G1 X121.741 Y135.671 E36.70881
G1 X119.475 Y135.664 E36.95354
G1 X98.798 Y135.664 E39.18665
G1 X96.497 Y135.67 E39.43516
G1 X93.1 Y135.663 E39.80204
G1 X90.46 Y134.522 E40.11265
G1 X88.745 Y133.126 E40.35147
G1 X88.429 Y132.683 E40.41024
G1 X60.562 Y132.682 E43.41988
G1 X58.116 Y132.089 E43.6917
G1 X55.959 Y130.494 E43.98142
G1 X54.418 Y128.597 E44.24538
G1 X53.496 Y125.942 E44.54892
G1 X53.497 Y100.945 E47.24859
G1 X54.26 Y98.759 E47.49865
G1 X55.585 Y96.644 E47.76819
G1 X58.479 Y94.652 E48.14763
G0 F7200 X58.633 Y95.031
G1 F1800 X60.961 Y94.621 E48.40292
G1 X91.616 Y94.622 E51.71366
G1 X94.024 Y95.451 E51.98871
G1 X95.916 Y96.838 E52.24207
G1 X96.444 Y97.6 E52.34219
G1 X119.476 Y97.604 E54.82965
G1 X121.777 Y97.598 E55.07816
G1 X125.087 Y97.605 E55.43564
G1 X127.349 Y98.586 E55.70192
G1 X129.099 Y99.802 E55.93206
G1 X130.695 Y102.208 E56.24388
G1 X131.219 Y104.563 E56.50444
G1 X131.222 Y126.002 E58.81986
G1 X131.216 Y128.533 E59.09321
G1 X130.577 Y130.957 E59.36394
G1 X128.686 Y133.501 E59.70628
G1 X126.562 Y134.675 E59.96838
G1 X124.532 Y135.267 E60.19676
G1 X121.742 Y135.271 E60.49808
G1 X119.476 Y135.264 E60.74281
G1 X98.797 Y135.264 E62.97614
G1 X96.498 Y135.27 E63.22443
G1 X93.183 Y135.263 E63.58245
G1 X90.668 Y134.176 E63.87836
G1 X88.997 Y132.816 E64.11104
G1 X88.643 Y132.283 E64.18014
G1 X60.611 Y132.282 E67.2076
G1 X58.289 Y131.719 E67.46564
G1 X56.237 Y130.202 E67.74124
G1 X54.773 Y128.399 E67.99208
G1 X53.896 Y125.874 E68.28076
G1 X53.897 Y101.014 E70.96564
G1 X54.624 Y98.931 E71.20391
G1 X55.88 Y96.926 E71.45943
G1 X58.633 Y95.031 E71.82038
G0 F7200 X58.787 Y95.41
G1 F1800 X60.996 Y95.021 E72.06262
G1 X91.55 Y95.022 E75.36246
G1 X93.834 Y95.808 E75.62332
G1 X95.626 Y97.122 E75.86331
G1 X96.234 Y98 E75.97866
G1 X119.477 Y98.004 E78.4889
G1 X121.776 Y97.998 E78.73719
G1 X125.004 Y98.005 E79.08582
G1 X127.156 Y98.938 E79.33914
G1 X128.808 Y100.086 E79.5564
G1 X130.321 Y102.367 E79.85202
G1 X130.819 Y104.605 E80.09963
G1 X130.822 Y126.001 E82.4104
G1 X130.816 Y128.48 E82.67813
G1 X130.21 Y130.78 E82.93501
G1 X128.416 Y133.194 E83.25983
G1 X126.409 Y134.303 E83.50748
G1 X124.475 Y134.867 E83.72505
G1 X121.743 Y134.871 E84.02011
G1 X119.477 Y134.864 E84.26484
G1 X98.796 Y134.864 E86.49839
G1 X96.499 Y134.87 E86.74646
G1 X93.266 Y134.863 E87.09563
G1 X90.876 Y133.83 E87.37683
G1 X89.297 Y132.545 E87.59669
G1 X88.857 Y131.883 E87.68254
G1 X60.66 Y131.882 E90.72782
G1 X58.462 Y131.349 E90.97208
G1 X56.513 Y129.908 E91.23386
G1 X55.128 Y128.203 E91.47109
G1 X54.296 Y125.806 E91.74512
G1 X54.297 Y101.083 E94.4152
G1 X54.988 Y99.103 E94.64169
G1 X56.175 Y97.208 E94.88319
G1 X58.787 Y95.41 E95.22566
G0 F7200 X58.941 Y95.789
G1 F1800 X61.031 Y95.421 E95.45485
G1 X91.484 Y95.422 E98.74377
G1 X93.646 Y96.166 E98.99071
G1 X95.335 Y97.404 E99.21687
G1 X96.024 Y98.4 E99.34767
G1 X119.478 Y98.404 E101.8807
G1 X121.775 Y98.398 E102.12878
G1 X124.921 Y98.405 E102.46855
G1 X126.963 Y99.29 E102.70891
G1 X128.517 Y100.37 E102.91329
G1 X129.947 Y102.526 E103.1927
G1 X130.419 Y104.647 E103.42737
G1 X130.422 Y126 E105.7335
G1 X130.416 Y128.427 E105.99561
G1 X129.843 Y130.603 E106.23863
G1 X128.146 Y132.886 E106.54585
G1 X126.254 Y133.932 E106.77934
G1 X124.418 Y134.467 E106.98587
G1 X121.744 Y134.471 E107.27466
G1 X119.478 Y134.464 E107.51939
G1 X98.795 Y134.464 E109.75316
G1 X96.5 Y134.47 E110.00102
G1 X93.349 Y134.463 E110.34133
G1 X91.086 Y133.485 E110.60758
G1 X89.597 Y132.273 E110.81493
G1 X89.071 Y131.483 E110.91743
G1 X60.709 Y131.482 E113.98053
G1 X58.635 Y130.979 E114.21101
G1 X56.791 Y129.616 E114.45866
G1 X55.483 Y128.005 E114.68278
G1 X54.696 Y125.738 E114.94195
G1 X54.697 Y101.152 E117.59723
G1 X55.352 Y99.275 E117.81194
G1 X56.47 Y97.49 E118.03941
G1 X58.941 Y95.789 E118.3634
G0 F7200 X59.095 Y96.168
G1 F1800 X61.066 Y95.821 E118.57954
G1 X91.418 Y95.822 E121.85755
G1 X93.456 Y96.523 E122.09031
G1 X95.045 Y97.688 E122.30311
G1 X95.814 Y98.8 E122.44912
G1 X119.479 Y98.804 E125.00494
G1 X121.774 Y98.798 E125.25281
G1 X124.838 Y98.805 E125.58372
G1 X126.77 Y99.642 E125.81111
G1 X128.226 Y100.654 E126.00261
G1 X129.573 Y102.685 E126.26582
G1 X130.019 Y104.689 E126.48755
G1 X130.022 Y125.999 E128.78903
G1 X130.016 Y128.374 E129.04553
G1 X129.476 Y130.426 E129.27469
G1 X127.876 Y132.579 E129.56439
G1 X126.101 Y133.56 E129.78342
G1 X124.361 Y134.067 E129.97915
G1 X121.745 Y134.071 E130.26168
G1 X119.479 Y134.064 E130.50641
G1 X98.794 Y134.064 E132.74039
G1 X96.501 Y134.07 E132.98804
G1 X93.432 Y134.063 E133.31949
G1 X91.294 Y133.139 E133.57104
G1 X89.898 Y132.003 E133.76541
G1 X89.286 Y131.083 E133.88475
G1 X60.758 Y131.082 E136.96578
G1 X58.808 Y130.609 E137.18248
G1 X57.067 Y129.322 E137.41631
G1 X55.838 Y127.809 E137.62683
G1 X55.096 Y125.67 E137.87134
G1 X55.097 Y101.221 E140.51184
G1 X55.716 Y99.447 E140.71476
G1 X56.765 Y97.772 E140.9282
G1 X59.095 Y96.168 E141.23371
G0 F7200 X59.249 Y96.547
G1 F1800 X61.101 Y96.221 E141.4368
G1 X91.352 Y96.222 E144.70391
G1 X93.268 Y96.881 E144.92273
G1 X94.755 Y97.971 E145.12185
G1 X95.604 Y99.2 E145.28318
G1 X119.48 Y99.204 E147.86178
G1 X121.773 Y99.198 E148.10943
G1 X124.755 Y99.205 E148.43149
G1 X126.577 Y99.994 E148.64592
G1 X127.935 Y100.938 E148.82454
G1 X129.199 Y102.844 E149.07154
G1 X129.619 Y104.731 E149.28032
G1 X129.622 Y125.998 E151.57716
G1 X129.616 Y128.321 E151.82804
G1 X129.109 Y130.249 E152.04334
G1 X127.606 Y132.272 E152.31553
G1 X125.948 Y133.188 E152.5201
G1 X124.304 Y133.667 E152.70504
G1 X121.746 Y133.671 E152.9813
G1 X119.48 Y133.664 E153.22603
G1 X98.793 Y133.664 E155.46023
G1 X96.502 Y133.67 E155.70766
G1 X93.515 Y133.663 E156.03025
G1 X91.504 Y132.794 E156.26685
G1 X90.198 Y131.731 E156.44872
G1 X89.501 Y130.683 E156.58465
G1 X60.807 Y130.682 E159.6836
G1 X58.981 Y130.239 E159.88653
G1 X57.345 Y129.03 E160.10623
G1 X56.193 Y127.611 E160.30362
G1 X55.496 Y125.602 E160.53328
G1 X55.497 Y101.29 E163.15898
G1 X56.08 Y99.619 E163.35011
G1 X57.06 Y98.054 E163.54954
G1 X59.249 Y96.547 E163.83656
G0 F7200 X59.403 Y96.926
G1 F1800 X61.136 Y96.621 E164.0266
G1 X91.286 Y96.622 E167.2828
G1 X93.08 Y97.239 E167.48769
G1 X94.465 Y98.254 E167.67314
G1 X95.395 Y99.6 E167.84983
G1 X119.481 Y99.604 E170.45112
G1 X121.772 Y99.598 E170.69855
G1 X124.672 Y99.605 E171.01175
G1 X126.384 Y100.346 E171.21322
G1 X127.644 Y101.222 E171.37895
G1 X128.825 Y103.003 E171.60975
G1 X129.219 Y104.773 E171.80559
G1 X129.222 Y125.997 E174.09778
G1 X129.216 Y128.268 E174.34305
G1 X128.742 Y130.072 E174.54449
G1 X127.336 Y131.965 E174.79916
G1 X125.795 Y132.816 E174.98928
G1 X124.247 Y133.267 E175.16342
G1 X121.747 Y133.271 E175.43342
G1 X119.481 Y133.264 E175.67814
G1 X98.792 Y133.264 E177.91256
G1 X96.503 Y133.27 E178.15977
G1 X93.598 Y133.263 E178.47351
G1 X91.714 Y132.449 E178.69516
G1 X90.498 Y131.459 E178.86451
G1 X89.715 Y130.283 E179.0171
G1 X60.856 Y130.282 E182.13387
G1 X59.154 Y129.869 E182.32302
G1 X57.621 Y128.736 E182.52889
G1 X56.548 Y127.415 E182.71269
G1 X55.896 Y125.534 E182.9277
G1 X55.897 Y101.359 E185.5386
G1 X56.444 Y99.791 E185.71795
G1 X57.355 Y98.336 E185.90335
G1 X59.403 Y96.926 E186.17189
G0 F7200 X59.557 Y97.305
G1 F1800 X61.171 Y97.021 E186.34888
G1 X91.22 Y97.022 E189.59417
G1 X92.89 Y97.596 E189.78489
G1 X94.176 Y98.539 E189.95711
G1 X95.186 Y100 E190.14894
G1 X119.482 Y100.004 E192.7729
G1 X121.771 Y99.998 E193.02012
G1 X124.589 Y100.005 E193.32446
G1 X126.191 Y100.698 E193.51297
G1 X127.353 Y101.506 E193.66583
G1 X128.451 Y103.162 E193.88042
G1 X128.819 Y104.815 E194.06331
G1 X128.822 Y125.996 E196.35086
G1 X128.816 Y128.215 E196.59051
G1 X128.374 Y129.897 E196.77833
G1 X127.067 Y131.657 E197.01509
G1 X125.642 Y132.444 E197.19091
G1 X124.19 Y132.867 E197.35424
G1 X121.748 Y132.871 E197.61798
G1 X119.482 Y132.864 E197.86271
G1 X98.791 Y132.864 E200.09733
G1 X96.504 Y132.87 E200.34433
G1 X93.681 Y132.863 E200.64922
G1 X91.922 Y132.103 E200.85616
G1 X90.799 Y131.189 E201.01254
G1 X89.929 Y129.883 E201.18202
G1 X60.905 Y129.882 E204.31661
G1 X59.327 Y129.499 E204.49198
G1 X57.899 Y128.444 E204.68373
G1 X56.903 Y127.217 E204.85441
G1 X56.296 Y125.466 E205.05456
G1 X56.297 Y101.428 E207.65066
G1 X56.808 Y99.963 E207.81823
G1 X57.65 Y98.618 E207.98961
G1 X59.557 Y97.305 E208.23966
G0 F7200 X59.711 Y97.684
G1 F1800 X61.206 Y97.421 E208.4036
G1 X91.154 Y97.422 E211.63798
G1 X92.702 Y97.954 E211.81476
G1 X93.886 Y98.822 E211.97332
G1 X94.8 Y100.145 E212.14698
G1 X94.897 Y100.4 E212.17645
G1 X119.483 Y100.404 E214.83174
G1 X121.77 Y100.398 E215.07873
G1 X124.506 Y100.405 E215.37422
G1 X125.998 Y101.05 E215.54977
G1 X127.062 Y101.79 E215.68974
G1 X128.077 Y103.321 E215.88813
G1 X128.419 Y104.857 E216.05808
G1 X128.422 Y125.995 E218.34098
G1 X128.416 Y128.162 E218.57502
G1 X128.007 Y129.721 E218.74909
G1 X126.797 Y131.35 E218.96824
G1 X125.489 Y132.072 E219.1296
G1 X124.133 Y132.467 E219.28213
G1 X121.749 Y132.471 E219.53961
G1 X119.483 Y132.464 E219.78434
G1 X98.79 Y132.464 E222.01918
G1 X96.505 Y132.47 E222.26596
G1 X93.764 Y132.463 E222.56199
G1 X92.132 Y131.758 E222.75399
G1 X91.099 Y130.917 E222.89785
G1 X90.293 Y129.707 E223.05487
G1 X90.208 Y129.483 E223.08074
G1 X60.954 Y129.482 E226.24018
G1 X59.5 Y129.129 E226.40177
G1 X58.177 Y128.152 E226.57939
G1 X57.258 Y127.019 E226.73695
G1 X56.696 Y125.398 E226.92224
G1 X56.697 Y101.497 E229.50355
G1 X57.172 Y100.135 E229.65933
G1 X57.945 Y98.9 E229.81668
G1 X59.711 Y97.684 E230.04825
G0 F7200 X59.865 Y98.063
G1 F1800 X61.241 Y97.821 E230.19914
G1 X91.088 Y97.822 E233.42262
G1 X92.514 Y98.312 E233.58546
G1 X93.596 Y99.105 E233.73034
G1 X94.471 Y100.372 E233.89664
G1 X94.6 Y100.8 E233.94492
G1 X119.484 Y100.804 E236.63239
G1 X121.769 Y100.798 E236.87917
G1 X124.423 Y100.805 E237.1658
G1 X125.805 Y101.402 E237.32839
G1 X126.771 Y102.074 E237.45548
G1 X127.703 Y103.48 E237.63766
G1 X128.019 Y104.899 E237.79466
G1 X128.022 Y125.994 E240.07292
G1 X128.016 Y128.109 E240.30135
G1 X127.639 Y129.546 E240.46179
G1 X126.528 Y131.042 E240.66304
G1 X125.336 Y131.7 E240.81009
G1 X124.076 Y132.067 E240.95183
G1 X121.75 Y132.071 E241.20303
G1 X119.484 Y132.064 E241.44776
G1 X98.789 Y132.064 E243.68282
G1 X96.506 Y132.07 E243.92939
G1 X93.847 Y132.063 E244.21656
G1 X92.34 Y131.412 E244.39385
G1 X91.4 Y130.647 E244.52474
G1 X90.626 Y129.485 E244.67553
G1 X90.505 Y129.083 E244.72087
G1 X61.003 Y129.082 E247.90709
G1 X59.673 Y128.759 E248.0549
G1 X58.455 Y127.86 E248.2184
G1 X57.613 Y126.821 E248.36283
G1 X57.096 Y125.33 E248.53327
G1 X57.097 Y101.566 E251.09978
G1 X57.536 Y100.307 E251.24378
G1 X58.24 Y99.182 E251.38711
G1 X59.865 Y98.063 E251.60019
G0 F7200 X60.019 Y98.442
G1 F1800 X61.276 Y98.221 E251.73803
G1 X91.022 Y98.222 E254.9506
G1 X92.326 Y98.67 E255.09951
G1 X93.306 Y99.388 E255.23072
G1 X94.142 Y100.599 E255.38964
G1 X94.284 Y101.201 E255.45644
G1 X96.522 Y101.197 E255.69815
G1 X98.788 Y101.204 E255.94288
G1 X119.485 Y101.204 E258.17815
G1 X121.768 Y101.198 E258.42472
G1 X124.34 Y101.205 E258.70249
G1 X125.612 Y101.754 E258.85212
G1 X126.48 Y102.358 E258.96633
G1 X127.329 Y103.639 E259.1323
G1 X127.619 Y104.941 E259.27636
G1 X127.622 Y125.993 E261.54998
G1 X127.616 Y128.056 E261.77278
G1 X127.271 Y129.371 E261.91961
G1 X126.259 Y130.734 E262.10295
G1 X125.183 Y131.328 E262.23569
G1 X124.019 Y131.667 E262.36663
G1 X121.751 Y131.671 E262.61157
G1 X119.485 Y131.664 E262.8563
G1 X98.788 Y131.664 E265.09158
G1 X96.507 Y131.67 E265.33793
G1 X93.93 Y131.663 E265.61624
G1 X92.55 Y131.067 E265.77859
G1 X91.7 Y130.375 E265.89696
G1 X90.959 Y129.263 E266.04128
G1 X90.82 Y128.683 E266.1057
G1 X61.052 Y128.682 E269.32064
G1 X59.845 Y128.389 E269.45478
G1 X58.735 Y127.57 E269.60376
G1 X57.968 Y126.623 E269.73537
G1 X57.496 Y125.262 E269.89095
G1 X57.497 Y101.635 E272.44267
G1 X57.9 Y100.479 E272.57488
G1 X58.535 Y99.464 E272.70419
G1 X60.019 Y98.442 E272.89879
G0 F7200 X60.173 Y98.821
G1 F1800 X61.311 Y98.621 E273.02358
G1 X90.956 Y98.622 E276.22524
G1 X92.136 Y99.027 E276.35998
G1 X93.017 Y99.673 E276.47796
G1 X93.77 Y100.764 E276.62113
G1 X93.989 Y101.691 E276.724
G1 X94.381 Y101.601 E276.76744
G1 X96.521 Y101.597 E276.99856
G1 X98.787 Y101.604 E277.24329
G1 X119.486 Y101.604 E279.47878
G1 X121.767 Y101.598 E279.72513
G1 X124.258 Y101.605 E279.99416
G1 X125.417 Y102.105 E280.13048
G1 X126.189 Y102.642 E280.23205
G1 X126.955 Y103.798 E280.38182
G1 X127.219 Y104.983 E280.51293
G1 X127.222 Y125.992 E282.7819
G1 X127.216 Y128.003 E282.99909
G1 X126.903 Y129.196 E283.1323
G1 X125.99 Y130.426 E283.29774
G1 X125.03 Y130.956 E283.41617
G1 X123.962 Y131.267 E283.5363
G1 X121.752 Y131.271 E283.77498
G1 X119.486 Y131.264 E284.01971
G1 X98.787 Y131.264 E286.2552
G1 X96.508 Y131.27 E286.50134
G1 X94.013 Y131.263 E286.7708
G1 X92.758 Y130.721 E286.91844
G1 X92.001 Y130.105 E287.02384
G1 X91.331 Y129.1 E287.15429
G1 X91.115 Y128.196 E287.25467
G1 X90.732 Y128.283 E287.29709
G1 X61.101 Y128.282 E290.49724
G1 X60.018 Y128.019 E290.6176
G1 X59.014 Y127.278 E290.75237
G1 X58.323 Y126.425 E290.87092
G1 X57.896 Y125.194 E291.01164
G1 X57.897 Y101.704 E293.54856
G1 X58.264 Y100.651 E293.669
G1 X58.83 Y99.746 E293.78428
G1 X60.173 Y98.821 E293.9604
G0 F7200 X60.327 Y99.2
G1 F1800 X61.346 Y99.021 E294.07213
G1 X90.89 Y99.022 E297.26289
G1 X91.948 Y99.385 E297.38369
G1 X92.726 Y99.956 E297.48791
G1 X93.398 Y100.929 E297.61562
G1 X93.694 Y102.183 E297.75478
G1 X94.382 Y102.001 E297.83164
G1 X96.52 Y101.997 E298.06254
G1 X98.786 Y102.004 E298.30727
G1 X119.487 Y102.004 E300.54298
G1 X121.766 Y101.998 E300.78911
G1 X124.176 Y102.005 E301.04939
G1 X125.222 Y102.456 E301.17241
G1 X125.898 Y102.926 E301.26133
G1 X126.581 Y103.957 E301.3949
G1 X126.819 Y105.025 E301.51307
G1 X126.822 Y125.991 E303.7774
G1 X126.816 Y127.95 E303.98897
G1 X126.535 Y129.021 E304.10856
G1 X125.721 Y130.118 E304.25609
G1 X124.877 Y130.584 E304.36021
G1 X123.905 Y130.867 E304.46954
G1 X121.753 Y130.871 E304.70196
G1 X119.487 Y130.864 E304.94669
G1 X98.786 Y130.864 E307.1824
G1 X96.509 Y130.87 E307.42831
G1 X94.096 Y130.863 E307.68892
G1 X92.968 Y130.376 E307.82161
G1 X92.301 Y129.833 E307.9145
G1 X91.703 Y128.937 E308.03084
G1 X91.47 Y127.959 E308.13942
